storage/app/icons/phosphoricons/duotone/equalizer-duotone.svg

<svg xmlns="http://www.w3.org/2000/svg" fill="currentColor" viewBox="0 0 256 256"><path d="M232 64v128H24V80a16 16 0 0 1 16-16Z" opacity=".2"/><path d="M80 96a8 8 0 0 1-8 8H24a8 8 0 0 1 0-16h48a8 8 0 0 1 8 8m-8 24H24a8 8 0 0 0 0 16h48a8 8 0 0 0 0-16m0 32H24a8 8 0 0 0 0 16h48a8 8 0 0 0 0-16m0 32H24a8 8 0 0 0 0 16h48a8 8 0 0 0 0-16m80-64h-48a8 8 0 0 0 0 16h48a8 8 0 0 0 0-16m0 32h-48a8 8 0 0 0 0 16h48a8 8 0 0 0 0-16m0 32h-48a8 8 0 0 0 0 16h48a8 8 0 0 0 0-16m80-96h-48a8 8 0 0 0 0 16h48a8 8 0 0 0 0-16m-48-16h48a8 8 0 0 0 0-16h-48a8 8 0 0 0 0 16m48 48h-48a8 8 0 0 0 0 16h48a8 8 0 0 0 0-16m0 32h-48a8 8 0 0 0 0 16h48a8 8 0 0 0 0-16m0 32h-48a8 8 0 0 0 0 16h48a8 8 0 0 0 0-16"/></svg>

<svg xmlns="http://www.w3.org/2000/svg" viewBox="0 0 256 256" fill="currentColor"><path d="M232,64V192H24V80A16,16,0,0,1,40,64Z" opacity="0.2"/><path d="M80,96a8,8,0,0,1-8,8H24a8,8,0,0,1,0-16H72A8,8,0,0,1,80,96Zm-8,24H24a8,8,0,0,0,0,16H72a8,8,0,0,0,0-16Zm0,32H24a8,8,0,0,0,0,16H72a8,8,0,0,0,0-16Zm0,32H24a8,8,0,0,0,0,16H72a8,8,0,0,0,0-16Zm80-64H104a8,8,0,0,0,0,16h48a8,8,0,0,0,0-16Zm0,32H104a8,8,0,0,0,0,16h48a8,8,0,0,0,0-16Zm0,32H104a8,8,0,0,0,0,16h48a8,8,0,0,0,0-16Zm80-96H184a8,8,0,0,0,0,16h48a8,8,0,0,0,0-16ZM184,72h48a8,8,0,0,0,0-16H184a8,8,0,0,0,0,16Zm48,48H184a8,8,0,0,0,0,16h48a8,8,0,0,0,0-16Zm0,32H184a8,8,0,0,0,0,16h48a8,8,0,0,0,0-16Zm0,32H184a8,8,0,0,0,0,16h48a8,8,0,0,0,0-16Z"/></svg>
